src/topics/icons/todoist.svg

<svg height="185" preserveAspectRatio="xMidYMid" viewBox="0 0 256 185" width="256" xmlns="http://www.w3.org/2000/svg"><g fill="#dd4b39"><path d="m149.745147 26.2177201c3.138402-2.7731877 4.709351-6.4253378 4.709351-10.9713037 0-4.5477133-1.540368-8.22694882-4.64557-11.02634814-3.099959-2.81512628-7.834648-4.22006826-14.198826-4.22006826h-3.474785-36.6962453-76.8349488c-6.0435222 0-10.6550171 1.36300341-13.81002051 4.07939932-3.2065529 2.73649146-4.79410239 6.44892828-4.79410239 11.16701708 0 4.5459659 1.53250512 8.198116 4.59838908 10.9713037 3.06064164 2.766198 7.71844372 4.1510444 14.00573382 4.1510444h40.1509351v70.1955495 61.817447c0 7.51312 1.710744 13.132014 5.1514539 16.854935 3.4188669 3.716806 7.870471 5.578703 13.3224847 5.578703 5.3655153 0 9.7524642-1.841802 13.1486143-5.517542 3.3839181-3.671372 5.0614608-9.313857 5.0614608-16.916096v-7.313911-86.8346759-37.8644096h.0078635 40.1631668c6.27069 0 10.987905-1.3848464 14.135045-4.1510444"/><path d="m227.115686 16.7666894c-7.398662-6.4751399-15.63959-10.88218428-24.71929-13.23511261-9.071836-2.34593856-19.953147-3.53157679-32.645679-3.53157679h-7.770867c2.962785 4.33190444 4.53985 9.50345392 4.53985 15.2437952 0 5.9430444-1.691523 11.2718635-4.904191 15.7024983 10.804423 0 20.07372.0332014 27.790416 2.4027304 8.074921 2.4769966 14.880328 8.2531604 20.376901 17.3284915.337256.555686.665775 1.1305938.977693 1.7282184 4.84303 9.053488 7.267604 22.131331 7.267604 39.2457611 0 21.0758771-4.143181 37.0754401-12.442649 48.0100481-1.901215 2.497966-4.011249 4.734689-6.339713 6.704054-2.762703 2.439427-6.049638 4.338894-9.839836 5.678307-3.760492 1.340287-7.422253 2.184301-10.960819 2.518936-3.531577.337256-8.405188.501515-14.615591.501515h-56.322621v7.307795c0 9.226485-2.080327 16.748341-6.155358 22.449365h21.081993 3.023072 45.051631c8.496055 0 16.101788-.547822 22.88273-1.637351 6.766089-1.100888 13.079591-2.987249 18.964096-5.678307 4.511891-2.064601 8.761666-4.65256 12.740587-7.767372 1.205734-.931386 2.377393-1.916069 3.530703-2.951427 6.298649-5.78927 11.476314-12.374498 15.507659-19.731222 4.041829-7.34187 7.022089-15.600273 8.942525-24.761228 1.943154-9.160082 2.904246-19.298731 2.904246-30.390608 0-33.6111399-9.619659-58.6572014-28.865092-75.1373106"/></g></svg>

<?xml version="1.0" encoding="UTF-8" standalone="no"?>
<svg width="256px" height="185px" viewBox="0 0 256 185" version="1.1" xmlns="http://www.w3.org/2000/svg" xmlns:xlink="http://www.w3.org/1999/xlink" preserveAspectRatio="xMidYMid">
    <g fill="#DD4B39">
        <path d="M149.745147,26.2177201 C152.883549,23.4445324 154.454498,19.7923823 154.454498,15.2464164 C154.454498,10.6987031 152.91413,7.01946758 149.808928,4.22006826 C146.708969,1.40494198 141.97428,0 135.610102,0 L132.135317,0 L95.4390717,0 L18.6041229,0 C12.5606007,0 7.9491058,1.36300341 4.79410239,4.07939932 C1.58754949,6.81589078 0,10.5283276 0,15.2464164 C0,19.7923823 1.53250512,23.4445324 4.59838908,26.2177201 C7.65903072,28.9839181 12.3168328,30.3687645 18.6041229,30.3687645 L58.755058,30.3687645 L58.755058,100.564314 L58.755058,162.381761 C58.755058,169.894881 60.465802,175.513775 63.9065119,179.236696 C67.3253788,182.953502 71.7769829,184.815399 77.2289966,184.815399 C82.5945119,184.815399 86.9814608,182.973597 90.3776109,179.297857 C93.761529,175.626485 95.4390717,169.984 95.4390717,162.381761 L95.4390717,155.06785 L95.4390717,68.2331741 L95.4390717,30.3687645 L95.4469352,30.3687645 L135.610102,30.3687645 C141.880792,30.3687645 146.598007,28.9839181 149.745147,26.2177201"></path>
        <path d="M227.115686,16.7666894 C219.717024,10.2915495 211.476096,5.88450512 202.396396,3.53157679 C193.32456,1.18563823 182.443249,0 169.750717,0 L161.97985,0 C164.942635,4.33190444 166.5197,9.50345392 166.5197,15.2437952 C166.5197,21.1868396 164.828177,26.5156587 161.615509,30.9462935 C172.419932,30.9462935 181.689229,30.9794949 189.405925,33.3490239 C197.480846,35.8260205 204.286253,41.6021843 209.782826,50.6775154 C210.120082,51.2332014 210.448601,51.8081092 210.760519,52.4057338 C215.603549,61.4592218 218.028123,74.5370648 218.028123,91.6514949 C218.028123,112.727372 213.884942,128.726935 205.585474,139.661543 C203.684259,142.159509 201.574225,144.396232 199.245761,146.365597 C196.483058,148.805024 193.196123,150.704491 189.405925,152.043904 C185.645433,153.384191 181.983672,154.228205 178.445106,154.56284 C174.913529,154.900096 170.039918,155.064355 163.829515,155.064355 L107.506894,155.064355 L107.506894,162.37215 C107.506894,171.598635 105.426567,179.120491 101.351536,184.821515 L122.433529,184.821515 L125.456601,184.821515 L170.508232,184.821515 C179.004287,184.821515 186.61002,184.273693 193.390962,183.184164 C200.157051,182.083276 206.470553,180.196915 212.355058,177.505857 C216.866949,175.441256 221.116724,172.853297 225.095645,169.738485 C226.301379,168.807099 227.473038,167.822416 228.626348,166.787058 C234.924997,160.997788 240.102662,154.41256 244.134007,147.055836 C248.175836,139.713966 251.156096,131.455563 253.076532,122.294608 C255.019686,113.134526 255.980778,102.995877 255.980778,91.904 C255.980778,58.2928601 246.361119,33.2467986 227.115686,16.7666894"></path>
    </g>
</svg>
